X:945
T: Ferbane HP
S: B.Breathnach: "Ceol Rince na hEireann" II/300 (gan ainm)
Z: B.Black
L: 1/8
M: 4/4
R: hornpipe
K: G
DE/F/|G2 AG EDEF|G2 Bd efge|d2 BG AGEG|AcBA AGED|
G2 AG EDEF|G2 Bd efge|d2 BG AGEF|G2 GF G2 :|
ef|g2 fd edBd|g2 af gfef|g2 fd edBG|AcBG AGED|
G2 AG EDEF|G2 Bd efge|d2 BG AGEF|G2 GF G2 :|

